icons/round/image/ic_blur_circular_24px.svg

<svg xmlns="http://www.w3.org/2000/svg" height="24" viewBox="0 0 24 24" width="24"><path d="M0 0h24v24H0V0z" fill="none"/><path d="M10 9c-.55 0-1 .45-1 1s.45 1 1 1 1-.45 1-1-.45-1-1-1zm0 4c-.55 0-1 .45-1 1s.45 1 1 1 1-.45 1-1-.45-1-1-1zM7 9.5c-.28 0-.5.22-.5.5s.22.5.5.5.5-.22.5-.5-.22-.5-.5-.5zm3 7c-.28 0-.5.22-.5.5s.22.5.5.5.5-.22.5-.5-.22-.5-.5-.5zm-3-3c-.28 0-.5.22-.5.5s.22.5.5.5.5-.22.5-.5-.22-.5-.5-.5zm3-6c.28 0 .5-.22.5-.5s-.22-.5-.5-.5-.5.22-.5.5.22.5.5.5zM14 9c-.55 0-1 .45-1 1s.45 1 1 1 1-.45 1-1-.45-1-1-1zm0-1.5c.28 0 .5-.22.5-.5s-.22-.5-.5-.5-.5.22-.5.5.22.5.5.5zm3 6c-.28 0-.5.22-.5.5s.22.5.5.5.5-.22.5-.5-.22-.5-.5-.5zm0-4c-.28 0-.5.22-.5.5s.22.5.5.5.5-.22.5-.5-.22-.5-.5-.5zM12 2C6.48 2 2 6.48 2 12s4.48 10 10 10 10-4.48 10-10S17.52 2 12 2zm0 18c-4.42 0-8-3.58-8-8s3.58-8 8-8 8 3.58 8 8-3.58 8-8 8zm2-3.5c-.28 0-.5.22-.5.5s.22.5.5.5.5-.22.5-.5-.22-.5-.5-.5zm0-3.5c-.55 0-1 .45-1 1s.45 1 1 1 1-.45 1-1-.45-1-1-1z"/></svg>

<svg xmlns="http://www.w3.org/2000/svg" enable-background="new 0 0 24 24" height="24" viewBox="0 0 24 24" width="24"><g><rect fill="none" height="24" width="24"/></g><g><g><g><path d="M10,9c-0.55,0-1,0.45-1,1s0.45,1,1,1s1-0.45,1-1S10.55,9,10,9z M10,13c-0.55,0-1,0.45-1,1s0.45,1,1,1s1-0.45,1-1 S10.55,13,10,13z M7,9.5c-0.28,0-0.5,0.22-0.5,0.5s0.22,0.5,0.5,0.5s0.5-0.22,0.5-0.5S7.28,9.5,7,9.5z M10,16.5 c-0.28,0-0.5,0.22-0.5,0.5s0.22,0.5,0.5,0.5s0.5-0.22,0.5-0.5S10.28,16.5,10,16.5z M7,13.5c-0.28,0-0.5,0.22-0.5,0.5 s0.22,0.5,0.5,0.5s0.5-0.22,0.5-0.5S7.28,13.5,7,13.5z M10,7.5c0.28,0,0.5-0.22,0.5-0.5S10.28,6.5,10,6.5S9.5,6.72,9.5,7 S9.72,7.5,10,7.5z M14,9c-0.55,0-1,0.45-1,1s0.45,1,1,1s1-0.45,1-1S14.55,9,14,9z M14,7.5c0.28,0,0.5-0.22,0.5-0.5 S14.28,6.5,14,6.5S13.5,6.72,13.5,7S13.72,7.5,14,7.5z M17,13.5c-0.28,0-0.5,0.22-0.5,0.5s0.22,0.5,0.5,0.5s0.5-0.22,0.5-0.5 S17.28,13.5,17,13.5z M17,9.5c-0.28,0-0.5,0.22-0.5,0.5s0.22,0.5,0.5,0.5s0.5-0.22,0.5-0.5S17.28,9.5,17,9.5z M12,2 C6.48,2,2,6.48,2,12s4.48,10,10,10s10-4.48,10-10S17.52,2,12,2z M12,20c-4.42,0-8-3.58-8-8s3.58-8,8-8s8,3.58,8,8S16.42,20,12,20 z M14,16.5c-0.28,0-0.5,0.22-0.5,0.5s0.22,0.5,0.5,0.5s0.5-0.22,0.5-0.5S14.28,16.5,14,16.5z M14,13c-0.55,0-1,0.45-1,1 s0.45,1,1,1s1-0.45,1-1S14.55,13,14,13z"/></g></g></g></svg>
